X: 21353
T: Jenny's Lilt
%R: reel
B: James Oswald "The Caledonian Pocket Companion" v.2 p.135 #3
Z: 2018 John Chambers <jc:trillian.mit.edu>
M: C|
L: 1/8
K: G
|: "_Brisk"\
G2BG AcBd | G2BG cAFD | G2BG AcBg | fde^c d2D2 ::\
b2af gedB | b2af gBA2 | b2af gedc | BGAF  G2g2 :|


